dist/svgs/unicons/line/window-maximize.svg

<svg xmlns="http://www.w3.org/2000/svg" viewBox="0 0 24 24"><path d="M21 2H3a1 1 0 00-1 1v18a1 1 0 001 1h18a1 1 0 001-1V3a1 1 0 00-1-1zm-1 18H4V10h16zm0-12H4V4h16z"/></svg>

<svg xmlns="http://www.w3.org/2000/svg" viewBox="0 0 24 24"><path d="M21,2H3A1,1,0,0,0,2,3V21a1,1,0,0,0,1,1H21a1,1,0,0,0,1-1V3A1,1,0,0,0,21,2ZM20,20H4V10H20ZM20,8H4V4H20Z"/></svg>
